assets/icons/standard/resource_capacity.svg

<svg xmlns="http://www.w3.org/2000/svg" width="100" height="100" viewBox="0 0 100 100"><path d="M49.91,20A25.4,25.4,0,1,0,75.09,45.5C75.09,31.71,63.85,20,49.91,20ZM67.6,46.43H49.29V27s6.87-.42,13.11,6.06S67.6,46.43,67.6,46.43Z" fill="#fff" fill-rule="evenodd"/><path d="M26,64.21H24.73A4.75,4.75,0,0,0,20,68.95v6.31A4.74,4.74,0,0,0,24.73,80H75.27A4.75,4.75,0,0,0,80,75.26V68.95a4.74,4.74,0,0,0-4.73-4.74H73.73a30.15,30.15,0,0,1-47.72,0Z" fill="#fff" fill-rule="evenodd"/></svg>

<?xml version="1.0"?><svg xmlns="http://www.w3.org/2000/svg" width="100" height="100" viewBox="0 0 100 100"><title></title><path d="m49.9 20a25.4 25.4 0 1 0 25.2 25.5c0-13.8-11.2-25.5-25.2-25.5z m17.7 26.4h-18.3v-19.4s6.9-0.4 13.1 6.1 5.2 13.3 5.2 13.3z m-41.6 17.8h-1.3a4.8 4.8 0 0 0-4.7 4.8v6.3a4.7 4.7 0 0 0 4.7 4.7h50.6a4.8 4.8 0 0 0 4.7-4.7v-6.3a4.7 4.7 0 0 0-4.7-4.8h-1.6a30.1 30.1 0 0 1-47.7 0z" fill="#fff" fill-rule="evenodd"></path></svg>
